X:583
T: "Die Nachtigall"
N: Z1263
O: Europa, Mitteleuropa, Oesterreich
R: Natur und Welt
M: 3/8
L: 1/16
K: G
B2B2B2 | c2B2c2 | d2B2G2
B2B2B2 | c2c2c2 | d4z2
B2B2B2 | c2B2c2 | d2B2G2
B2B2B2 | c2cBcA | G4z2

